src/22/actions/zoom-1-to-2.svg

<svg xmlns="http://www.w3.org/2000/svg" viewBox="0 0 22 22"><path d="M3 3v3h1V4h2V3H3zm13 0v1h2v2h1V3h-3zm-4 2v12h5V5h-5zM5 8v6h3V8H5zm4 1v4l2-2-2-2zm-6 7v3h3v-1H4v-2H3zm15 0v2h-2v1h3v-3h-1z" fill="currentColor" color="#5d656b"/></svg>

<svg xmlns="http://www.w3.org/2000/svg" viewBox="0 0 22 22">
  <defs id="defs3051">
    <style type="text/css" id="current-color-scheme">
      .ColorScheme-Text {
        color:#5d656b;
      }
      </style>
  </defs>
 <path 
     style="fill:currentColor;fill-opacity:1;stroke:none" 
     d="M 3 3 L 3 4 L 3 6 L 4 6 L 4 4 L 6 4 L 6 3 L 4 3 L 3 3 z M 16 3 L 16 4 L 18 4 L 18 6 L 19 6 L 19 4 L 19 3 L 18 3 L 16 3 z M 12 5 L 12 17 L 17 17 L 17 5 L 12 5 z M 5 8 L 5 14 L 8 14 L 8 8 L 5 8 z M 9 9 L 9 13 L 11 11 L 9 9 z M 3 16 L 3 18 L 3 19 L 6 19 L 6 18 L 4 18 L 4 16 L 3 16 z M 18 16 L 18 18 L 16 18 L 16 19 L 19 19 L 19 16 L 18 16 z "
	 class="ColorScheme-Text"
     />
</svg>
